public/static/scratch/assets/9e17f0918c30a3fde0b381952985474e.svg

<svg xmlns="http://www.w3.org/2000/svg" width="480" height="360"><g fill="none" fill-rule="evenodd"><path fill="#FFF" d="M0 0h480v360H0z"/><g fill-rule="nonzero"><path fill="#86C2E1" d="M31 0v29.666h28.666V0H61v29.666h28.666V0H91v29.666h28.666V0H121v29.666h28.666V0H151v29.666h28.666V0H181v29.666h28.666V0H211v29.666h58.666V0H271v29.666h28.666V0H301v29.666h28.666V0H331v29.666h28.666V0H361v29.666h28.666V0H391v29.666h28.666V0H421v29.666h28.666V0H451v29.666h29V31l-29-.001v28.667h29V61h-29v28.666h29V91l-29-.001v28.667h29V121l-29-.001v28.667h29V151h-29v58.666h29V211h-29v28.666h29V241h-29v28.666h29V271l-29-.001v28.667h29V301l-29-.001v28.667h29V331l-29-.001V360h-1.333l-.001-29.001H421V360h-1.333l-.001-29.001H391V360h-1.333l-.001-29.001H361V360h-1.333l-.001-29.001H331V360h-1.333l-.001-29.001H301V360h-1.333l-.001-29.001H271V360h-1.333l-.001-29.001H211V360h-1.333l-.001-29.001H181V360h-1.333l-.001-29.001H151V360h-1.333l-.001-29.001H121V360h-1.333l-.001-29.001H91V360h-1.333l-.001-29.001H61V360h-1.333l-.001-29.001H31V360h-1.333l-.001-29.001L0 331v-1.333l29.666-.001v-28.667L0 301v-1.333l29.666-.001v-28.667L0 271v-1.333l29.666-.001V241H0v-1.333l29.666-.001V211H0v-1.333l29.666-.001V151H0v-1.333l29.666-.001v-28.667L0 121v-1.333l29.666-.001V90.999L0 91v-1.333l29.666-.001V61H0v-1.333l29.666-.001V30.999L0 31v-1.333l29.666-.001V0H31Zm418.666 329.666v-28.667H421v28.667h28.666Zm-30-28.667H391v28.667h28.666v-28.667Zm-210 0H181v28.667h28.666v-28.667Zm180 0H361v28.667h28.666v-28.667Zm-240 0H121v28.667h28.666v-28.667Zm210 0H331v28.667h28.666v-28.667Zm-30 0H301v28.667h28.666v-28.667Zm-30 0H271v28.667h28.666v-28.667Zm-30 0H211v28.667h58.666v-28.667Zm-90 0H151v28.667h28.666v-28.667Zm-60 0H91v28.667h28.666v-28.667Zm-30 0H61v28.667h28.666v-28.667Zm-30 0H31v28.667h28.666v-28.667Zm390-1.333v-28.667H421v28.667h28.666Zm-60-28.667H361v28.667h28.666v-28.667Zm-30 0H331v28.667h28.666v-28.667Zm-30 0H301v28.667h28.666v-28.667Zm-30 0H271v28.667h28.666v-28.667Zm-30 0H211v28.667h58.666v-28.667Zm-60 0H181v28.667h28.666v-28.667Zm-30 0H151v28.667h28.666v-28.667Zm-30 0H121v28.667h28.666v-28.667Zm-30 0H91v28.667h28.666v-28.667Zm-30 0H61v28.667h28.666v-28.667Zm-30 0H31v28.667h28.666v-28.667Zm360 0H391v28.667h28.666v-28.667Zm30-1.333V241H421v28.666h28.666ZM89.666 241H61v28.666h28.666V241Zm30 0H91v28.666h28.666V241Zm270 0H361v28.666h28.666V241Zm-210 0H151v28.666h28.666V241Zm90 0H211v28.666h58.666V241Zm-60 0H181v28.666h28.666V241Zm90 0H271v28.666h28.666V241Zm-150 0H121v28.666h28.666V241Zm180 0H301v28.666h28.666V241Zm-270 0H31v28.666h28.666V241Zm300 0H331v28.666h28.666V241Zm60 0H391v28.666h28.666V241Zm30-1.334V211H421v28.666h28.666Zm-120-28.666H301v28.666h28.666V211Zm90 0H391v28.666h28.666V211Zm-210 0H181v28.666h28.666V211Zm180 0H361v28.666h28.666V211Zm-240 0H121v28.666h28.666V211Zm210 0H331v28.666h28.666V211Zm-90 0H211v28.666h58.666V211Zm30 0H271v28.666h28.666V211Zm-180 0H91v28.666h28.666V211Zm60 0H151v28.666h28.666V211Zm-90 0H61v28.666h28.666V211Zm-30 0H31v28.666h28.666V211Zm390-1.334V151H421v58.666h28.666Zm-60-58.666H361v58.666h28.666V151Zm-60 0H301v58.666h28.666V151Zm-60 0H211v58.666h58.666V151Zm-210 0H31v58.666h28.666V151Zm30 0H61v58.666h28.666V151Zm30 0H91v58.666h28.666V151Zm30 0H121v58.666h28.666V151Zm30 0H151v58.666h28.666V151Zm30 0H181v58.666h28.666V151Zm90 0H271v58.666h28.666V151Zm60 0H331v58.666h28.666V151Zm60 0H391v58.666h28.666V151Zm30-1.334v-28.667H421v28.667h28.666Zm-390-28.667H31v28.667h28.666v-28.667Zm270 0H301v28.667h28.666v-28.667Zm90 0H391v28.667h28.666v-28.667Zm-120 0H271v28.667h28.666v-28.667Zm90 0H361v28.667h28.666v-28.667Zm-240 0H121v28.667h28.666v-28.667Zm210 0H331v28.667h28.666v-28.667Zm-240 0H91v28.667h28.666v-28.667Zm90 0H181v28.667h28.666v-28.667Zm60 0H211v28.667h58.666v-28.667Zm-90 0H151v28.667h28.666v-28.667Zm-90 0H61v28.667h28.666v-28.667Zm360-1.333V90.999H421v28.667h28.666Zm-180-28.667H211v28.667h58.666V90.999Zm120 0H361v28.667h28.666V90.999Zm-30 0H331v28.667h28.666V90.999Zm-30 0H301v28.667h28.666V90.999Zm-30 0H271v28.667h28.666V90.999Zm-90 0H181v28.667h28.666V90.999Zm-30 0H151v28.667h28.666V90.999Zm-30 0H121v28.667h28.666V90.999Zm-30 0H91v28.667h28.666V90.999Zm-30 0H61v28.667h28.666V90.999Zm-30 0H31v28.667h28.666V90.999Zm360 0H391v28.667h28.666V90.999Zm30-1.333V61H421v28.666h28.666ZM329.666 61H301v28.666h28.666V61Zm-270 0H31v28.666h28.666V61Zm30 0H61v28.666h28.666V61Zm30 0H91v28.666h28.666V61Zm30 0H121v28.666h28.666V61Zm30 0H151v28.666h28.666V61Zm30 0H181v28.666h28.666V61Zm60 0H211v28.666h58.666V61Zm30 0H271v28.666h28.666V61Zm60 0H331v28.666h28.666V61Zm30 0H361v28.666h28.666V61Zm30 0H391v28.666h28.666V61Zm30-1.334V30.999H421v28.667h28.666Zm-360-28.667H61v28.667h28.666V30.999Zm-30 0H31v28.667h28.666V30.999Zm120 0H151v28.667h28.666V30.999Zm210 0H361v28.667h28.666V30.999Zm-60 0H301v28.667h28.666V30.999Zm-60 0H211v28.667h58.666V30.999Zm-150 0H91v28.667h28.666V30.999Zm30 0H121v28.667h28.666V30.999Zm60 0H181v28.667h28.666V30.999Zm90 0H271v28.667h28.666V30.999Zm60 0H331v28.667h28.666V30.999Zm60 0H391v28.667h28.666V30.999Z"/><path fill="#ABABAB" d="m240.667 0-.001 179.333H480v1.334l-239.334-.001V360h-1.333V180.666H0v-1.333h239.333V0h1.334Z"/></g></g></svg>

<?xml version="1.0" encoding="UTF-8"?>
<svg width="480px" height="360px" viewBox="0 0 480 360" version="1.1" xmlns="http://www.w3.org/2000/svg" xmlns:xlink="http://www.w3.org/1999/xlink">
    <!-- Generator: Sketch 63.1 (92452) - https://sketch.com -->
    <title>网格01</title>
    <desc>Created with Sketch.</desc>
    <g id="网格01" stroke="none" stroke-width="1" fill="none" fill-rule="evenodd">
        <rect fill="#FFFFFF" x="0" y="0" width="480" height="360"></rect>
        <g id="编组" fill-rule="nonzero">
            <path d="M31,0 L31,29.666 L59.666,29.666 L59.6666667,0 L61,0 L61,29.666 L89.666,29.666 L89.6666667,0 L91,0 L91,29.666 L119.666,29.666 L119.666667,0 L121,0 L121,29.666 L149.666,29.666 L149.666667,0 L151,0 L151,29.666 L179.666,29.666 L179.666667,0 L181,0 L181,29.666 L209.666,29.666 L209.666667,0 L211,0 L211,29.666 L269.666,29.666 L269.666667,0 L271,0 L271,29.666 L299.666,29.666 L299.666667,0 L301,0 L301,29.666 L329.666,29.666 L329.666667,0 L331,0 L331,29.666 L359.666,29.666 L359.666667,0 L361,0 L361,29.666 L389.666,29.666 L389.666667,0 L391,0 L391,29.666 L419.666,29.666 L419.666667,0 L421,0 L421,29.666 L449.666,29.666 L449.666667,0 L451,0 L451,29.666 L480,29.6666667 L480,31 L451,30.999 L451,59.666 L480,59.6666667 L480,61 L451,61 L451,89.666 L480,89.6666667 L480,91 L451,90.999 L451,119.666 L480,119.666667 L480,121 L451,120.999 L451,149.666 L480,149.666667 L480,151 L451,151 L451,209.666 L480,209.666667 L480,211 L451,211 L451,239.666 L480,239.666667 L480,241 L451,241 L451,269.666 L480,269.666667 L480,271 L451,270.999 L451,299.666 L480,299.666667 L480,301 L451,300.999 L451,329.666 L480,329.666667 L480,331 L451,330.999 L451,360 L449.666667,360 L449.666,330.999 L421,330.999 L421,360 L419.666667,360 L419.666,330.999 L391,330.999 L391,360 L389.666667,360 L389.666,330.999 L361,330.999 L361,360 L359.666667,360 L359.666,330.999 L331,330.999 L331,360 L329.666667,360 L329.666,330.999 L301,330.999 L301,360 L299.666667,360 L299.666,330.999 L271,330.999 L271,360 L269.666667,360 L269.666,330.999 L211,330.999 L211,360 L209.666667,360 L209.666,330.999 L181,330.999 L181,360 L179.666667,360 L179.666,330.999 L151,330.999 L151,360 L149.666667,360 L149.666,330.999 L121,330.999 L121,360 L119.666667,360 L119.666,330.999 L91,330.999 L91,360 L89.6666667,360 L89.666,330.999 L61,330.999 L61,360 L59.6666667,360 L59.666,330.999 L31,330.999 L31,360 L29.6666667,360 L29.666,330.999 L0,331 L0,329.666667 L29.666,329.666 L29.666,300.999 L0,301 L0,299.666667 L29.666,299.666 L29.666,270.999 L0,271 L0,269.666667 L29.666,269.666 L29.666,241 L0,241 L0,239.666667 L29.666,239.666 L29.666,211 L0,211 L0,209.666667 L29.666,209.666 L29.666,151 L0,151 L0,149.666667 L29.666,149.666 L29.666,120.999 L0,121 L0,119.666667 L29.666,119.666 L29.666,90.999 L0,91 L0,89.6666667 L29.666,89.666 L29.666,61 L0,61 L0,59.6666667 L29.666,59.666 L29.666,30.999 L0,31 L0,29.6666667 L29.666,29.666 L29.6666667,0 L31,0 Z M449.666,329.666 L449.666,300.999 L421,300.999 L421,329.666 L449.666,329.666 Z M419.666,300.999 L391,300.999 L391,329.666 L419.666,329.666 L419.666,300.999 Z M209.666,300.999 L181,300.999 L181,329.666 L209.666,329.666 L209.666,300.999 Z M389.666,300.999 L361,300.999 L361,329.666 L389.666,329.666 L389.666,300.999 Z M149.666,300.999 L121,300.999 L121,329.666 L149.666,329.666 L149.666,300.999 Z M359.666,300.999 L331,300.999 L331,329.666 L359.666,329.666 L359.666,300.999 Z M329.666,300.999 L301,300.999 L301,329.666 L329.666,329.666 L329.666,300.999 Z M299.666,300.999 L271,300.999 L271,329.666 L299.666,329.666 L299.666,300.999 Z M269.666,300.999 L211,300.999 L211,329.666 L269.666,329.666 L269.666,300.999 Z M179.666,300.999 L151,300.999 L151,329.666 L179.666,329.666 L179.666,300.999 Z M119.666,300.999 L91,300.999 L91,329.666 L119.666,329.666 L119.666,300.999 Z M89.666,300.999 L61,300.999 L61,329.666 L89.666,329.666 L89.666,300.999 Z M59.666,300.999 L31,300.999 L31,329.666 L59.666,329.666 L59.666,300.999 Z M449.666,299.666 L449.666,270.999 L421,270.999 L421,299.666 L449.666,299.666 Z M389.666,270.999 L361,270.999 L361,299.666 L389.666,299.666 L389.666,270.999 Z M359.666,270.999 L331,270.999 L331,299.666 L359.666,299.666 L359.666,270.999 Z M329.666,270.999 L301,270.999 L301,299.666 L329.666,299.666 L329.666,270.999 Z M299.666,270.999 L271,270.999 L271,299.666 L299.666,299.666 L299.666,270.999 Z M269.666,270.999 L211,270.999 L211,299.666 L269.666,299.666 L269.666,270.999 Z M209.666,270.999 L181,270.999 L181,299.666 L209.666,299.666 L209.666,270.999 Z M179.666,270.999 L151,270.999 L151,299.666 L179.666,299.666 L179.666,270.999 Z M149.666,270.999 L121,270.999 L121,299.666 L149.666,299.666 L149.666,270.999 Z M119.666,270.999 L91,270.999 L91,299.666 L119.666,299.666 L119.666,270.999 Z M89.666,270.999 L61,270.999 L61,299.666 L89.666,299.666 L89.666,270.999 Z M59.666,270.999 L31,270.999 L31,299.666 L59.666,299.666 L59.666,270.999 Z M419.666,270.999 L391,270.999 L391,299.666 L419.666,299.666 L419.666,270.999 Z M449.666,269.666 L449.666,241 L421,241 L421,269.666 L449.666,269.666 Z M89.666,241 L61,241 L61,269.666 L89.666,269.666 L89.666,241 Z M119.666,241 L91,241 L91,269.666 L119.666,269.666 L119.666,241 Z M389.666,241 L361,241 L361,269.666 L389.666,269.666 L389.666,241 Z M179.666,241 L151,241 L151,269.666 L179.666,269.666 L179.666,241 Z M269.666,241 L211,241 L211,269.666 L269.666,269.666 L269.666,241 Z M209.666,241 L181,241 L181,269.666 L209.666,269.666 L209.666,241 Z M299.666,241 L271,241 L271,269.666 L299.666,269.666 L299.666,241 Z M149.666,241 L121,241 L121,269.666 L149.666,269.666 L149.666,241 Z M329.666,241 L301,241 L301,269.666 L329.666,269.666 L329.666,241 Z M59.666,241 L31,241 L31,269.666 L59.666,269.666 L59.666,241 Z M359.666,241 L331,241 L331,269.666 L359.666,269.666 L359.666,241 Z M419.666,241 L391,241 L391,269.666 L419.666,269.666 L419.666,241 Z M449.666,239.666 L449.666,211 L421,211 L421,239.666 L449.666,239.666 Z M329.666,211 L301,211 L301,239.666 L329.666,239.666 L329.666,211 Z M419.666,211 L391,211 L391,239.666 L419.666,239.666 L419.666,211 Z M209.666,211 L181,211 L181,239.666 L209.666,239.666 L209.666,211 Z M389.666,211 L361,211 L361,239.666 L389.666,239.666 L389.666,211 Z M149.666,211 L121,211 L121,239.666 L149.666,239.666 L149.666,211 Z M359.666,211 L331,211 L331,239.666 L359.666,239.666 L359.666,211 Z M269.666,211 L211,211 L211,239.666 L269.666,239.666 L269.666,211 Z M299.666,211 L271,211 L271,239.666 L299.666,239.666 L299.666,211 Z M119.666,211 L91,211 L91,239.666 L119.666,239.666 L119.666,211 Z M179.666,211 L151,211 L151,239.666 L179.666,239.666 L179.666,211 Z M89.666,211 L61,211 L61,239.666 L89.666,239.666 L89.666,211 Z M59.666,211 L31,211 L31,239.666 L59.666,239.666 L59.666,211 Z M449.666,209.666 L449.666,151 L421,151 L421,209.666 L449.666,209.666 Z M389.666,151 L361,151 L361,209.666 L389.666,209.666 L389.666,151 Z M329.666,151 L301,151 L301,209.666 L329.666,209.666 L329.666,151 Z M269.666,151 L211,151 L211,209.666 L269.666,209.666 L269.666,151 Z M59.666,151 L31,151 L31,209.666 L59.666,209.666 L59.666,151 Z M89.666,151 L61,151 L61,209.666 L89.666,209.666 L89.666,151 Z M119.666,151 L91,151 L91,209.666 L119.666,209.666 L119.666,151 Z M149.666,151 L121,151 L121,209.666 L149.666,209.666 L149.666,151 Z M179.666,151 L151,151 L151,209.666 L179.666,209.666 L179.666,151 Z M209.666,151 L181,151 L181,209.666 L209.666,209.666 L209.666,151 Z M299.666,151 L271,151 L271,209.666 L299.666,209.666 L299.666,151 Z M359.666,151 L331,151 L331,209.666 L359.666,209.666 L359.666,151 Z M419.666,151 L391,151 L391,209.666 L419.666,209.666 L419.666,151 Z M449.666,149.666 L449.666,120.999 L421,120.999 L421,149.666 L449.666,149.666 Z M59.666,120.999 L31,120.999 L31,149.666 L59.666,149.666 L59.666,120.999 Z M329.666,120.999 L301,120.999 L301,149.666 L329.666,149.666 L329.666,120.999 Z M419.666,120.999 L391,120.999 L391,149.666 L419.666,149.666 L419.666,120.999 Z M299.666,120.999 L271,120.999 L271,149.666 L299.666,149.666 L299.666,120.999 Z M389.666,120.999 L361,120.999 L361,149.666 L389.666,149.666 L389.666,120.999 Z M149.666,120.999 L121,120.999 L121,149.666 L149.666,149.666 L149.666,120.999 Z M359.666,120.999 L331,120.999 L331,149.666 L359.666,149.666 L359.666,120.999 Z M119.666,120.999 L91,120.999 L91,149.666 L119.666,149.666 L119.666,120.999 Z M209.666,120.999 L181,120.999 L181,149.666 L209.666,149.666 L209.666,120.999 Z M269.666,120.999 L211,120.999 L211,149.666 L269.666,149.666 L269.666,120.999 Z M179.666,120.999 L151,120.999 L151,149.666 L179.666,149.666 L179.666,120.999 Z M89.666,120.999 L61,120.999 L61,149.666 L89.666,149.666 L89.666,120.999 Z M449.666,119.666 L449.666,90.999 L421,90.999 L421,119.666 L449.666,119.666 Z M269.666,90.999 L211,90.999 L211,119.666 L269.666,119.666 L269.666,90.999 Z M389.666,90.999 L361,90.999 L361,119.666 L389.666,119.666 L389.666,90.999 Z M359.666,90.999 L331,90.999 L331,119.666 L359.666,119.666 L359.666,90.999 Z M329.666,90.999 L301,90.999 L301,119.666 L329.666,119.666 L329.666,90.999 Z M299.666,90.999 L271,90.999 L271,119.666 L299.666,119.666 L299.666,90.999 Z M209.666,90.999 L181,90.999 L181,119.666 L209.666,119.666 L209.666,90.999 Z M179.666,90.999 L151,90.999 L151,119.666 L179.666,119.666 L179.666,90.999 Z M149.666,90.999 L121,90.999 L121,119.666 L149.666,119.666 L149.666,90.999 Z M119.666,90.999 L91,90.999 L91,119.666 L119.666,119.666 L119.666,90.999 Z M89.666,90.999 L61,90.999 L61,119.666 L89.666,119.666 L89.666,90.999 Z M59.666,90.999 L31,90.999 L31,119.666 L59.666,119.666 L59.666,90.999 Z M419.666,90.999 L391,90.999 L391,119.666 L419.666,119.666 L419.666,90.999 Z M449.666,89.666 L449.666,61 L421,61 L421,89.666 L449.666,89.666 Z M329.666,61 L301,61 L301,89.666 L329.666,89.666 L329.666,61 Z M59.666,61 L31,61 L31,89.666 L59.666,89.666 L59.666,61 Z M89.666,61 L61,61 L61,89.666 L89.666,89.666 L89.666,61 Z M119.666,61 L91,61 L91,89.666 L119.666,89.666 L119.666,61 Z M149.666,61 L121,61 L121,89.666 L149.666,89.666 L149.666,61 Z M179.666,61 L151,61 L151,89.666 L179.666,89.666 L179.666,61 Z M209.666,61 L181,61 L181,89.666 L209.666,89.666 L209.666,61 Z M269.666,61 L211,61 L211,89.666 L269.666,89.666 L269.666,61 Z M299.666,61 L271,61 L271,89.666 L299.666,89.666 L299.666,61 Z M359.666,61 L331,61 L331,89.666 L359.666,89.666 L359.666,61 Z M389.666,61 L361,61 L361,89.666 L389.666,89.666 L389.666,61 Z M419.666,61 L391,61 L391,89.666 L419.666,89.666 L419.666,61 Z M449.666,59.666 L449.666,30.999 L421,30.999 L421,59.666 L449.666,59.666 Z M89.666,30.999 L61,30.999 L61,59.666 L89.666,59.666 L89.666,30.999 Z M59.666,30.999 L31,30.999 L31,59.666 L59.666,59.666 L59.666,30.999 Z M179.666,30.999 L151,30.999 L151,59.666 L179.666,59.666 L179.666,30.999 Z M389.666,30.999 L361,30.999 L361,59.666 L389.666,59.666 L389.666,30.999 Z M329.666,30.999 L301,30.999 L301,59.666 L329.666,59.666 L329.666,30.999 Z M269.666,30.999 L211,30.999 L211,59.666 L269.666,59.666 L269.666,30.999 Z M119.666,30.999 L91,30.999 L91,59.666 L119.666,59.666 L119.666,30.999 Z M149.666,30.999 L121,30.999 L121,59.666 L149.666,59.666 L149.666,30.999 Z M209.666,30.999 L181,30.999 L181,59.666 L209.666,59.666 L209.666,30.999 Z M299.666,30.999 L271,30.999 L271,59.666 L299.666,59.666 L299.666,30.999 Z M359.666,30.999 L331,30.999 L331,59.666 L359.666,59.666 L359.666,30.999 Z M419.666,30.999 L391,30.999 L391,59.666 L419.666,59.666 L419.666,30.999 Z" id="形状结合" fill="#86C2E1"></path>
            <path d="M240.666667,0 L240.666,179.333 L480,179.333333 L480,180.666667 L240.666,180.666 L240.666667,360 L239.333333,360 L239.333,180.666 L0,180.666667 L0,179.333333 L239.333,179.333 L239.333333,0 L240.666667,0 Z" id="形状结合" fill="#ABABAB"></path>
        </g>
    </g>
</svg>
